X: 19262
T: Ivory Bowl, The
R: jig
M: 6/8
K: Gmajor
|:f2e|dBB BAB|d2d e2d|dBB BAB|~G3 G2B|
dBB BAB|d3 def|gbg faf|e3:|
|:e2d|g3 gab|aba g3|gfe fed|e2d B2d|
g3 gab|aba g2e|fed BAB|e3:|

